X: 304
U:~=!turn!
M:C
L:1/8
K:D
"Slow when not Danced."
[G,2D2] ([A,E]>F) [DA]B ~"nat"B,2 | (A,D)DF T[CE2] (DA,) | [A,D]D[A,E]F [DA]B ~B,2 |
{/c}d>BAF TE2 {DE}D2 :| ([FA]>d)([Af]>d) ([A/g/]f/)e/d/ ~B2 | Ad[Ad]f {/f}[G2c2e2] ([Fd]>[DA]) |
~B>d ([D/B/]A/)G/F/ [A,/G/]F/[A,/E/]D/ TB,2 | (A,>D)D[B,DF] T[C2E2] D2 | (A>d)(f>d) (g/f/)e/d/ ~B2 |


